X:1
T:[ID 1-82]
T:[ID 1-82]
T:Bezeichnung standardisiert: Polonaise Tantz In dieser Quelle auch als: Pol. In dieser Quelle auch als: Polon\"aise In dieser Quelle auch als: Polonaise In dieser Quelle auch als: Poloniose In dieser Quelle auch als: Menuet In dieser Quelle auch als: Polonoise In anderer Quelle: 12. Polone\ss - H. N. Philipp 1784 (Anm. S. Wascher);  Pollon. - \"OLVA E-97/44, "um 1750") (Anm. S. Wascher);
T:Urheber unbekannt Erstbeleg: um 1750 (Datum in der schriftlichen Quelle) Datum in der hier transkribierten schriftlichen Quelle: vermutlich vor 1767
C:Urheber unbekannt
C:Erstbeleg: um 1750 (Datum in der schriftlichen Quelle)
C:Datum in der hier transkribierten schriftlichen Quelle: vermutlich vor 1767
L:1/8
M:3/4
K:D
V:1 treble 
V:1
 f/g/a/f/ d2 d2 | c/d/e/c/ A2 A2 | Ac ce eg | (3gfe f2 d2 :: f/g/a/f/ d2 =c2 | %5
 B/A/G/F/ [EG]2 [EG]2 | g/a/b/g/ e2 d2 | c/d/e/c/ A2 A2 |"^O)" Acceeg | Addffa |"^O)" Acceeg | %11
 Addffa | A2 A^G A2 | g2 f/e/d/c/ d2 :| %14

